tn/bed-double.svg

<svg viewBox="0 0 15 15" fill="none" xmlns="http://www.w3.org/2000/svg" height="1em" width="1em">
  <path d="M0 0h15v6h-1V1H1v5H0V0Z" fill="#000"/>
  <path d="M6 6H2V5h4v1Zm-6 9h1v-4h13v4h1V7H0v8Zm9-9h4V5H9v1Z" fill="#000"/>
</svg>

<svg viewBox="0 0 15 15" fill="none" xmlns="http://www.w3.org/2000/svg" height="1em" width="1em">
  <path d="M0 0H15V6H14V1H1V6H0V0Z" fill="black"/>
  <path d="M6 6H2V5H6V6Z" fill="black"/>
  <path d="M0 15H1V11H14V15H15V7H0V15Z" fill="black"/>
  <path d="M9 6H13V5H9V6Z" fill="black"/>
</svg>
